Papirus/22x22/apps/qwinff.svg

<svg xmlns="http://www.w3.org/2000/svg" width="22" height="22" version="1">
 <rect style="opacity:0.2" width="20" height="20" x="-21.5" y="-21" rx="6" ry="6" transform="matrix(0,-1,-1,0,0,0)"/>
 <rect width="20" height="20" x="-21" y="-21" rx="6" ry="6" transform="matrix(0,-1,-1,0,0,0)" style="fill:#81d547"/>
 <path d="M 10.969,5.4997 C 10.36481,5.4936 9.7657,5.57786 9.1838,5.72822 6.4712,6.41348 4.4511,8.85372 4.4924,11.49972 H 3.0002 l 2.2871,3 2.1875,-3 H 6.0432 C 6.038,10.39152 6.47879,9.36412 7.262,8.53682 8.734,6.86972 11.4931,6.47842 13.4495,7.59346 14.09939,8.39474 15.5427,7.51482 14.7854,6.69307 13.7082,5.90279 12.329,5.50247 10.969,5.49967 Z m 5.7441,3 -2.1875,3 h 1.4316 c 0.0052,1.1082 -0.43559,2.1356 -1.2188,2.9629 -1.472,1.6671 -4.2311,2.0584 -6.1875,0.94336 -0.64989,-0.80128 -2.0932,0.07864 -1.3359,0.90039 1.0772,0.79028 2.4564,1.1906 3.8164,1.1934 0.60419,0.0061 1.2033,-0.07816 1.7852,-0.22852 2.7126,-0.68526 4.7327,-3.1255 4.6914,-5.7715 h 1.4922 l -2.2871,-3 z" style="opacity:0.2"/>
 <path d="M 10.969,5 C 10.365,4.9939 9.765,5.0782 9.184,5.2285 6.471,5.9138 4.4509,8.3541 4.4922,11 H 3 l 2.2871,3 2.1875,-3 H 6.043 C 6.0378,9.892 6.4786,8.8644 7.2617,8.0371 8.7337,6.3701 11.493,5.9787 13.449,7.0938 14.099,7.895 15.542,7.0151 14.785,6.1934 13.708,5.4031 12.329,5.0028 10.969,5 Z m 5.7441,3 -2.1875,3 h 1.4316 c 0.0052,1.1082 -0.43559,2.1356 -1.2188,2.9629 -1.472,1.6671 -4.2311,2.0584 -6.1875,0.94336 -0.64989,-0.80128 -2.0932,0.07864 -1.3359,0.90039 1.0772,0.79028 2.4564,1.1906 3.8164,1.1934 0.60419,0.0061 1.2033,-0.07816 1.7852,-0.22852 2.7126,-0.68526 4.7327,-3.1255 4.6914,-5.7715 h 1.491 l -2.287,-3 z" style="fill:#ffffff"/>
 <circle cx="16" cy="16" r="6" style="fill:#f34235"/>
 <g transform="matrix(0.5,0,0,0.5,-1.5,-0.5)" style="fill:#ffffff">
  <path d="m 29.625,29 h 8.7498 c 0.625,0 0.625,0.571 0.625,0.571 v 6.8572 c 0,0.572 -0.625,0.572 -0.625,0.572 H 29.625 c 0,0 -0.625,0 -0.625,-0.571 v -6.857 c 0,-10e-4 0,-0.572 0.625,-0.572 z"/>
  <path d="m 43,30 v 6 l -4,-3.1304 z"/>
 </g>
 <path style="opacity:0.2;fill:#ffffff" d="M 7,1 C 3.676,1 1,3.676 1,7 v 0.5 c 0,-3.324 2.676,-6 6,-6 h 8 c 3.324,0 6,2.676 6,6 V 7 C 21,3.676 18.324,1 15,1 Z"/>
</svg>

<svg xmlns="http://www.w3.org/2000/svg" width="22" height="22" version="1">
 <rect fill="#81d547" width="20" height="20" x="-21" y="-21" rx="1" ry="1" transform="matrix(0,-1,-1,0,0,0)"/>
 <path fill="#fff" opacity=".2" d="m1 2.5v-0.5c0-0.554 0.446-1 1-1h18c0.554 0 1 0.446 1 1v0.5c0-0.554-0.446-1-1-1h-18c-0.554 0-1 0.446-1 1z"/>
 <path opacity=".2" d="m1 20v0.5c0 0.554 0.446 1 1 1h18c0.554 0 1-0.446 1-1v-0.5c0 0.554-0.446 1-1 1h-18c-0.554 0-1-0.446-1-1z"/>
 <path opacity=".2" d="m10.969 5.4997c-0.604-0.0061-1.2036 0.0782-1.7854 0.2285-2.7126 0.6853-4.7327 3.1255-4.6914 5.7718h-1.4922l2.2871 3 2.1875-3h-1.4316c-0.0052-1.109 0.4356-2.1359 1.2187-2.9632 1.472-1.6671 4.2313-2.0584 6.1873-0.9434 0.65 0.8013 2.093-0.0786 1.336-0.9003-1.077-0.7903-2.456-1.1906-3.816-1.1934zm5.7441 3-2.1875 3h1.4316c0.0052 1.1082-0.43559 2.1356-1.2188 2.9629-1.472 1.6671-4.2311 2.0584-6.1875 0.94336-0.64989-0.80128-2.0932 0.07864-1.3359 0.90039 1.0772 0.79028 2.4564 1.1906 3.8164 1.1934 0.60419 0.0061 1.2033-0.07816 1.7852-0.22852 2.7126-0.68526 4.7327-3.1255 4.6914-5.7715h1.4922l-2.2871-3z"/>
 <path fill="#fff" d="m10.969 5c-0.604-0.0061-1.2036 0.0782-1.7854 0.2285-2.7126 0.6853-4.7327 3.1256-4.6914 5.7715h-1.4922l2.2871 3 2.1875-3h-1.4316c-0.0052-1.1082 0.4356-2.1356 1.2187-2.9629 1.472-1.667 4.2313-2.0584 6.1873-0.9433 0.65 0.8012 2.093-0.0787 1.336-0.9004-1.077-0.7903-2.456-1.1906-3.816-1.1934zm5.7441 3-2.1875 3h1.4316c0.0052 1.1082-0.43559 2.1356-1.2188 2.9629-1.472 1.6671-4.2311 2.0584-6.1875 0.94336-0.64989-0.80128-2.0932 0.07864-1.3359 0.90039 1.0772 0.79028 2.4564 1.1906 3.8164 1.1934 0.60419 0.0061 1.2033-0.07816 1.7852-0.22852 2.7126-0.68526 4.7327-3.1255 4.6914-5.7715h1.491l-2.287-3z"/>
 <circle fill="#f34235" cx="16" cy="16" r="6"/>
 <g fill="#fff" transform="matrix(.5 0 0 .5 -1.5 -.5)">
  <path d="m29.625 29h8.7498c0.625 0 0.625 0.571 0.625 0.571v6.8572c0 0.572-0.625 0.572-0.625 0.572h-8.7498s-0.625 0-0.625-0.571v-6.857c0-0.001 0-0.572 0.625-0.572z"/>
  <path d="m43 30v6l-4-3.1304z"/>
 </g>
</svg>
